X:1
T:Title
%%score ( 1 2 ) { 3 | 4 }
L:1/8
Q:1/4=92
M:4/4
K:D
V:1 treble nm="Grand Piano, Soprano"
V:2 treble 
V:3 treble nm="Choir Pad, The Gospel Invitation"
V:4 bass 
V:1
 [DF]>[EG] [FA]>[FA] [FA]>[GB] [FA]>[DF] | [CE]>D [Dd]>[Gd] [Gd]>[GB] [FA]2 | %2
w: By~Jacob~Henry~Hall * * * * * * *||
 [FA]>[FA] A2- [EA-]>[FA-] [GA]>[FA] | [GB]>[FA] [FA]6 | [DF]>[EG] [FA]>[FA] [FA]>[GB] [FA]>[DF] | %5
w: |||
 [CE]>D [Dd]>[Gd] [Gd]>[GB] [FA]2 | [FA]>[FA] A2- [EA-]>[FA-] [GA]>[FA] | (3[EG][DF][CE] D6 | %8
w: |||
 (3A[^GB][=Gc] [Fd]4- [Fd]>[Ge] | [Fd]>[GB] [FA]6 | [FA]>[FA] A2- [EA-]>[FA-] [GA]>[FA] | z2 F6 | %12
w: ||||
 (3A[^GB][=Gc] [Fd]4- [Fd]>[Ge] | [Fd]>[GB] [FA]6 | [FA]>[FA] A2- [EA-]>[FA-] [GA]>[FA] | %15
w: |||
 (3[EG][DF][CE] D>[K:bass]A, B,>B, A,2- | A,6 z2 |] %17
w: ||
V:2
 x8 | x8 | z2 G2 z4 | x8 | x8 | x8 | z2 G2 z4 | x8 | x8 | x8 | z2 G2 z4 | %11
 (3[EG][DF][CE] D>D D>D D2 | x8 | x8 | z2 G2 z4 | x7/2[K:bass] x9/2 | x8 |] %17
V:3
 A,>A, D>D D>D D>[K:bass]A, | A,>A, B,>B, B,>[K:treble]D D2 | z4 C>D E2 | z2 z z/ D/ D>D D2 | %4
 A,>A, D>D D>D D>[K:bass]A, | A,>A, B,>B, B,>[K:treble]D D2 | z4 C>D E>D | A,>[K:bass]G, F,6 | %8
 z4 A,>A, A,2 | z2 z z/[K:treble] D/ D>D D2 | z4 C>D E>D | A,>[K:bass]A, A,>A, A,>A, A,2 | %12
 z4 A,>A, A,2 | z2 z z/[K:treble] D/ D>D D2 | z4 C>D E>D | A,>[K:bass]G, F,>F, G,>G, F,2- | %16
 F,6 z2 |] %17
V:4
 D,>D, D,>D, D,>D, D,>D, | E,>F, G,>G, G,>G, D,2 | z4 A,,>A,, A,,2 | z2 z z/ D,/ D,>D, D,2 | %4
 D,>D, D,>D, D,>D, D,>D, | E,>F, G,>G, G,>G, D,2 | z4 A,,>A,, A,,>A,, | A,,>A,, D,6 | %8
 z4 D,>D, D,2 | z2 z z/ D,/ D,>D, D,2 | z4 A,,>A,, A,,>A,, | A,,>A,, D,>D, D,>D, D,2 | %12
 z4 D,>D, D,2 | z2 z z/ D,/ D,>D, D,2 | z4 A,,>A,, A,,>A,, | A,,>A,, D,6 | z8 |] %17

